icons/4_Outdated/Stake v1 bg.var.svg

<svg width="1024" height="1024" viewBox="0 0 1024 1024" fill="none" xmlns="http://www.w3.org/2000/svg">
<g clip-path="url(#clip0_3_671)">
<path d="M512 1024C794.77 1024 1024 794.77 1024 512C1024 229.23 794.77 0 512 0C229.23 0 0 229.23 0 512C0 794.77 229.23 1024 512 1024Z" fill="#F8C18C"/>
<path d="M251.4 406.802C267.7 400.302 285.4 398.302 302.8 398.502C315 398.602 327.3 399.602 339.2 402.202C349.1 404.402 358.9 407.902 367.6 413.302C374.7 417.702 381.1 423.302 386.2 429.902C396.3 442.802 401.8 458.702 404.7 474.702H341.7C340.5 469.302 338.1 463.902 333.8 460.202C328 455.102 320.2 453.302 312.8 452.302C304.5 451.402 296.2 451.202 287.9 452.202C282.4 453.002 276.6 454.302 272.3 458.102C268.7 461.302 267.5 466.602 268.6 471.302C269.3 474.202 271.6 476.502 274.2 477.802C278 479.702 282.3 480.502 286.4 481.302C297.2 483.202 308.1 484.102 319 484.902C331.2 485.602 343.5 487.102 355.4 489.902C364.5 492.102 373.6 495.002 381.6 500.002C389.1 504.602 395.4 511.102 399.4 519.002C403.6 527.302 405.2 536.602 405.6 545.702C406.3 560.202 404.1 575.102 396.9 587.902C391.8 597.302 384.2 605.202 375.2 610.802C365.3 617.002 354.1 620.702 342.7 622.902C329.2 625.502 315.5 626.002 301.8 625.602C287.8 625.202 273.7 623.702 260.1 619.902C251.9 617.602 243.9 614.302 236.7 609.702C228.2 604.302 220.9 596.902 215.6 588.302C207.7 575.602 203.8 560.802 201.6 546.002H267.7C268.9 551.402 271.3 556.702 275.3 560.602C280.9 566.302 288.8 569.002 296.5 570.402C305.5 571.902 314.7 572.102 323.8 571.302C329.8 570.702 336.1 569.802 341 566.102C345.9 562.402 347 555.102 344.5 549.702C342.9 546.402 339.4 544.402 336 543.302C329.1 541.102 321.7 540.302 314.5 539.402C298.4 537.502 282 537.302 266 534.402C256.3 532.702 246.7 530.202 237.8 525.902C230 522.102 222.8 516.702 217.9 509.602C211.3 500.402 208.7 489.002 208.1 477.902C207.2 463.002 209.6 447.502 217.4 434.602C225 421.802 237.6 412.302 251.4 406.802ZM710.6 619.602H737.7V546.402C738.1 536.602 737.6 526.802 738 517.002C743.5 551.202 749.3 585.302 754.9 619.502C764.1 619.602 773.4 619.502 782.6 619.502C775 578.702 767.5 537.902 760 497.002C759.7 495.402 760.4 493.802 760.7 492.202C767.7 462.702 774.7 433.302 781.7 403.802H755.5C749.1 433.102 742.9 462.502 736.5 491.802C736.9 462.502 737.2 433.202 737.7 403.802C728.7 403.702 719.6 403.802 710.6 403.802V619.602ZM792.8 619.602H822.3V601.602H809.4V519.002H822.3V501.302H809.4V421.702H822.3V404.002H792.8V619.602ZM414.2 455.302C432.3 455.202 450.3 455.302 468.4 455.302V619.602H523V455.302H578C578.1 438.502 578 421.702 578 404.802H414.1C414.1 421.602 414.1 438.502 414.2 455.302ZM601.7 619.602C603.7 609.102 605.7 598.502 607.7 588.002H653.1C655.2 598.502 657.3 609.102 659.4 619.602H698.2C681.9 548.002 665.6 476.502 649.4 404.902C636.5 404.802 623.5 404.902 610.6 404.902C594.7 476.402 578.8 548.002 563 619.602H601.7ZM634.4 478.102C638.5 503.402 642.5 528.602 646.6 553.902H614.4C619.8 520.602 625.1 487.302 630.4 454.002C631.9 462.002 633 470.102 634.4 478.102Z" fill="white"/>
</g>
<defs>
<clipPath id="clip0_3_671">
<rect width="1024" height="1024" fill="white"/>
</clipPath>
</defs>
</svg>

<svg xmlns="http://www.w3.org/2000/svg" width="1024" height="1024" fill="none">
   <g clip-path="url(#a)">
      <path fill="#F8C18C" d="M512 1024c282.77 0 512-229.23 512-512S794.77 0 512 0 0 229.23 0 512s229.23 512 512 512Z"/>
      <path fill="#fff" d="M251.4 406.802c16.3-6.5 34-8.5 51.4-8.3 12.2.1 24.5 1.1 36.4 3.7 9.9 2.2 19.7 5.7 28.4 11.1 7.1 4.4 13.5 10 18.6 16.6 10.1 12.9 15.6 28.8 18.5 44.8h-63c-1.2-5.4-3.6-10.8-7.9-14.5-5.8-5.1-13.6-6.9-21-7.9-8.3-.9-16.6-1.1-24.9-.1-5.5.8-11.3 2.1-15.6 5.9-3.6 3.2-4.8 8.5-3.7 13.2.7 2.9 3 5.2 5.6 6.5 3.8 1.9 8.1 2.7 12.2 3.5 10.8 1.9 21.7 2.8 32.6 3.6 12.2.7 24.5 2.2 36.4 5 9.1 2.2 18.2 5.1 26.2 10.1 7.5 4.6 13.8 11.1 17.8 19 4.2 8.3 5.8 17.6 6.2 26.7.7 14.5-1.5 29.4-8.7 42.2-5.1 9.4-12.7 17.3-21.7 22.9-9.9 6.2-21.1 9.9-32.5 12.1-13.5 2.6-27.2 3.1-40.9 2.7-14-.4-28.1-1.9-41.7-5.7-8.2-2.3-16.2-5.6-23.4-10.2-8.5-5.4-15.8-12.8-21.1-21.4-7.9-12.7-11.8-27.5-14-42.3h66.1c1.2 5.4 3.6 10.7 7.6 14.6 5.6 5.7 13.5 8.4 21.2 9.8 9 1.5 18.2 1.7 27.3.9 6-.6 12.3-1.5 17.2-5.2 4.9-3.7 6-11 3.5-16.4-1.6-3.3-5.1-5.3-8.5-6.4-6.9-2.2-14.3-3-21.5-3.9-16.1-1.9-32.5-2.1-48.5-5-9.7-1.7-19.3-4.2-28.2-8.5-7.8-3.8-15-9.2-19.9-16.3-6.6-9.2-9.2-20.6-9.8-31.7-.9-14.9 1.5-30.4 9.3-43.3 7.6-12.8 20.2-22.3 34-27.8Zm459.2 212.8h27.1v-73.2c.4-9.8-.1-19.6.3-29.4 5.5 34.2 11.3 68.3 16.9 102.5 9.2.1 18.5 0 27.7 0-7.6-40.8-15.1-81.6-22.6-122.5-.3-1.6.4-3.2.7-4.8 7-29.5 14-58.9 21-88.4h-26.2c-6.4 29.3-12.6 58.7-19 88 .4-29.3.7-58.6 1.2-88-9-.1-18.1 0-27.1 0v215.8Zm82.2 0h29.5v-18h-12.9v-82.6h12.9v-17.7h-12.9v-79.6h12.9v-17.7h-29.5v215.6Zm-378.6-164.3c18.1-.1 36.1 0 54.2 0v164.3H523v-164.3h55c.1-16.8 0-33.6 0-50.5H414.1c0 16.8 0 33.7.1 50.5Zm187.5 164.3c2-10.5 4-21.1 6-31.6h45.4c2.1 10.5 4.2 21.1 6.3 31.6h38.8c-16.3-71.6-32.6-143.1-48.8-214.7-12.9-.1-25.9 0-38.8 0-15.9 71.5-31.8 143.1-47.6 214.7h38.7Zm32.7-141.5c4.1 25.3 8.1 50.5 12.2 75.8h-32.2c5.4-33.3 10.7-66.6 16-99.9 1.5 8 2.6 16.1 4 24.1Z"/>
   </g>
   <defs>
      <clipPath id="a">
         <path fill="#fff" d="M0 0h1024v1024H0z"/>
      </clipPath>
   </defs>
</svg>
